landscape/logos/d-graph-no-sql-databases.svg

<svg xmlns="http://www.w3.org/2000/svg" role="img" viewBox="-8.25 -8.00 416.00 136.25"><title>DGraph (NoSQL Databases) logo</title><defs><linearGradient id="a" x1="0%" x2="100%" y1="50%" y2="50%"><stop offset="0%" stop-color="#FF1800"/><stop offset="100%" stop-color="#FF009B"/></linearGradient></defs><g fill="none" fill-rule="evenodd"><path fill="url(#a)" d="M81.7680739,21.68 C82.9480739,19.528 83.5680739,17.112 83.5680739,14.656 C83.5548605,6.56719421 77.0008797,0.0132134309 68.9120739,0 C62.17622,0.00816299361 56.3102191,4.59937648 54.6840739,11.136 L50.6320739,10.976 C22.6721839,10.9804163 0.00669912886,33.6441104 3.68700716e-05,61.604 C-0.0159260888,74.816 5.15207391,87.512 14.3920739,96.956 C12.4720739,99.492 11.4400739,102.58 11.4440739,105.756 C11.4572873,113.844806 18.0112681,120.398787 26.1000739,120.412 C32.2920739,120.412 37.6320739,116.524 39.7600739,111.052 C43.3299462,111.833459 46.9736702,112.227738 50.6280739,112.228 C78.5895256,112.223583 101.255657,89.5574517 101.260108,61.596 C101.278177,45.9961205 94.0827844,31.2642453 81.7680739,21.688 L81.7680739,21.68 Z M68.9080739,23.652 C68.1416207,23.6522758 67.3782167,23.5555063 66.6360739,23.364 L60.5560739,41.004 L69.4360739,39.556 L56.9280739,59.94 L67.3360739,57.412 L32.2880739,99.2 C35.619647,102.394452 35.9946078,107.591406 33.1561141,111.231029 C30.3176204,114.870652 25.1858883,115.773009 21.2760739,113.32 C17.377954,110.835136 15.9962746,105.801177 18.0797249,101.674541 C20.1631752,97.5479056 25.0341219,95.670764 29.3480739,97.332 L39.2800739,75.664 L29.5880739,78.288 L45.3480739,55.728 L35.6600739,58.072 L63.1280739,21.5 C60.2360953,19.0679015 59.1713126,15.0882914 60.4623732,11.5369809 C61.7534337,7.98567038 65.1253711,5.61900688 68.9040739,5.612 C73.873075,5.612 77.9018655,9.63899942 77.9040739,14.608 C77.9040739,19.5770011 73.8770745,23.6057916 68.9080739,23.608 L68.9080739,23.652 Z"/><path fill="#000" d="M129.440074,24.4 L150.016074,24.4 C158.016074,24.456 163.948074,27.868 167.936074,34.64 C169.360074,36.92 170.256074,39.304 170.636074,41.84 C170.932074,44.34 171.036074,48.656 171.036074,54.788 C171.036074,61.308 170.808074,65.868 170.356074,68.448 C170.170049,69.6482192 169.845204,70.8227607 169.388074,71.948 C168.932074,72.948 168.380074,73.948 167.732074,75.068 C166.012074,77.924 163.612074,80.288 160.552074,82.148 C157.512074,84.148 153.752074,85.148 149.376074,85.148 L129.440074,85.148 L129.440074,24.4 Z M138.344074,76.46 L149.000074,76.46 C154.008074,76.46 157.640074,74.692 159.904074,71.16 C160.904074,69.852 161.532074,68.2 161.800074,66.192 C162.040074,64.216 162.200074,60.512 162.200074,55.092 L161.800074,43.74 C161.480074,41.46 160.712074,39.608 159.500074,38.188 C157.020074,34.656 153.520074,32.988 149.000074,33.056 L138.336074,33.056 L138.336074,76.456 L138.344074,76.46 Z M210.200074,80.608 C207.432074,83.84 203.828074,85.508 199.400074,85.624 C196.688074,85.564 194.432074,84.968 192.632074,83.832 C190.752074,82.752 189.312074,81.58 188.312074,80.332 C187.212074,78.916 186.420074,77.18 185.936074,75.12 C185.424074,73.092 185.136074,69.232 185.136074,63.536 C185.136074,57.728 185.388074,53.796 185.936074,51.736 C186.416074,49.708 187.216074,48 188.312074,46.616 C189.312074,45.264 190.744074,44.048 192.632074,42.968 C194.432074,41.948 196.688074,41.368 199.400074,41.356 C203.560074,41.356 207.168074,43.064 210.200074,46.476 L210.200074,41.888 L218.600074,41.888 L218.600074,84.072 C218.492074,90.568 216.680074,95.344 213.160074,98.4 C209.616074,101.54 205.376074,103.108 200.432074,103.108 C194.768074,102.996 189.932074,100.588 185.932074,95.876 L192.464074,90.516 C193.568292,91.5677921 194.816861,92.4567407 196.172074,93.156 C197.521848,93.9457965 199.045404,94.3909112 200.608074,94.452 C203.480074,94.452 205.796074,93.632 207.540074,91.984 C209.260074,90.304 210.148074,87.996 210.204074,85.036 L210.204074,80.608 L210.200074,80.608 Z M193.576074,63.548 L193.896074,70.4 C194.084074,71.708 194.528074,72.8 195.228074,73.66 C195.788074,74.44 196.656074,75.148 197.812074,75.788 C198.912074,76.568 200.292074,76.96 201.932074,76.96 C203.572074,76.96 204.944074,76.568 206.052074,75.788 C207.156074,75.148 207.988074,74.436 208.556074,73.66 C209.293139,72.7092114 209.778754,71.5880327 209.968074,70.4 C210.128074,69.144 210.208074,66.86 210.208074,63.548 L209.968074,56.528 C209.728074,55.22 209.256074,54.16 208.556074,53.352 C207.996074,52.572 207.156074,51.804 206.052074,51.052 C204.948074,50.412 203.580074,50.064 201.932074,50.012 C200.332074,50.068 198.920074,50.412 197.812074,51.052 C196.612074,51.804 195.796074,52.572 195.228074,53.352 C194.528074,54.16 194.084074,55.22 193.896074,56.528 C193.680074,57.84 193.576074,60.18 193.576074,63.548 Z M235.200074,41.892 L243.600074,41.892 L243.600074,46.472 L243.776074,46.472 C246.548074,43.056 250.176074,41.352 254.672074,41.352 C257.910196,41.3590489 261.036235,42.5384179 263.472074,44.672 L257.336074,52.184 C255.560074,50.736 253.716074,50.012 251.804074,50.012 C249.745477,49.9721379 247.755429,50.752041 246.272074,52.18 C244.552074,53.596 243.660074,55.892 243.604074,59.06 L243.604074,85.124 L235.204074,85.124 L235.200074,41.892 Z M293.104074,81.292 L292.944074,81.292 C292.157551,82.7710732 290.872051,83.9233457 289.316074,84.544 C287.704074,85.264 285.476074,85.624 282.624074,85.624 C277.944074,85.564 274.344074,84.292 271.824074,81.792 C269.164074,79.392 267.832074,76.192 267.832074,72.424 C267.832074,68.824 269.032074,65.776 271.300074,63.384 C273.568074,60.992 276.996074,59.696 281.460074,59.636 L293.112074,59.636 L293.112074,55.076 C293.164074,51.252 290.304074,49.396 284.520074,49.476 C282.420074,49.476 280.768074,49.696 279.560074,50.144 C278.292392,50.674853 277.241959,51.6195375 276.580074,52.824 L270.000074,47.648 C273.200074,43.34 277.912074,41.24 284.148074,41.352 C289.412074,41.296 293.620074,42.324 296.764074,44.432 C299.908074,46.592 301.508074,50.32 301.564074,55.632 L301.564074,85.2 L293.164074,85.2 L293.104074,81.292 Z M293.104074,66.792 L283.004074,66.792 C278.096074,66.904 275.676074,68.64 275.724074,72.004 C275.724074,73.472 276.356074,74.724 277.624074,75.756 C278.836074,76.896 280.844074,77.464 283.644074,77.464 C287.172074,77.52 289.664074,77.088 291.124074,76.172 C292.444074,75.252 293.104074,73.172 293.104074,69.92 L293.104074,66.792 Z M318.024074,41.892 L326.424074,41.892 L326.424074,46.388 C329.224074,43.168 332.824074,41.488 337.224074,41.348 C342.356074,41.484 346.104074,43.376 348.472074,47.012 C349.672074,48.372 350.416074,50.16 350.848074,52.384 C351.248074,54.584 351.448074,58.304 351.448074,63.584 C351.448074,68.692 351.248074,72.356 350.848074,74.584 C350.420074,76.804 349.628074,78.584 348.472074,80.044 C347.272074,81.708 345.792074,83.044 343.912074,84.044 C342.060074,85.072 339.832074,85.644 337.224074,85.668 C335.208145,85.7022304 333.2192,85.2011985 331.460074,84.216 C329.58396,83.2969328 327.879275,82.0630652 326.420074,80.568 L326.420074,102.656 L318.020074,102.656 L318.020074,41.888 L318.024074,41.892 Z M334.704074,76.96 C336.692074,76.96 338.304074,76.568 339.424074,75.788 C340.53859,75.0295753 341.397555,73.9516852 341.888074,72.696 C342.448074,71.304 342.808074,69.84 342.976074,68.348 L343.056074,63.548 L342.976074,58.492 C342.825318,56.9990167 342.458837,55.5357883 341.888074,54.148 C341.428074,52.868 340.568074,51.748 339.424074,51.056 C338.224074,50.36 336.692074,50.016 334.704074,50.016 C332.824074,50.016 331.324074,50.416 330.224074,51.228 C329.084074,52.012 328.196074,53.12 327.680074,54.404 C327.15347,55.7734185 326.814399,57.2077388 326.672074,58.668 C326.512074,60.292 326.432074,61.924 326.432074,63.556 C326.432074,65.092 326.512074,66.62 326.672074,68.156 C326.832074,69.768 327.168074,71.236 327.680074,72.544 C328.196949,73.8300094 329.081926,74.9348386 330.224074,75.72 C331.324074,76.52 332.824074,76.972 334.704074,76.972 L334.704074,76.96 Z M366.560074,24.4 L374.960074,24.4 L374.960074,46.472 L375.120074,46.472 C377.726249,43.1296729 381.767484,41.2271288 386.004074,41.348 C389.468074,41.348 392.644074,42.612 395.512074,45.136 C398.364074,47.696 399.852074,51.44 399.992074,56.336 L399.992074,85.072 L391.592074,85.072 L391.592074,59.3 C391.592074,56.268 390.812074,53.964 389.252074,52.38 C387.720074,50.768 385.744074,49.96 383.320074,49.96 C380.896074,49.96 378.912074,50.76 377.352074,52.38 C375.764074,53.964 374.968074,56.272 374.968074,59.3 L374.968074,85.072 L366.568074,85.072 L366.560074,24.4 Z"/></g></svg>

<svg xmlns="http://www.w3.org/2000/svg" role="img" viewBox="-7.99 -7.99 415.74 136.24"><title>DGraph (NoSQL Databases) logo</title><defs><linearGradient id="a" x1="0%" x2="100%" y1="50%" y2="50%"><stop offset="0%" stop-color="#FF1800"/><stop offset="100%" stop-color="#FF009B"/></linearGradient></defs><g fill="none" fill-rule="evenodd"><path fill="url(#a)" d="M81.76807 21.68c1.18-2.152 1.8-4.568 1.8-7.024C83.55486 6.5672 77.00088.01321 68.91207 0c-6.73585.00816-12.60185 4.59938-14.228 11.136l-4.052-.16C22.67218 10.98042.0067 33.64411.00004 61.604c-.01597 13.212 5.15203 25.908 14.39203 35.352-1.92 2.536-2.952 5.624-2.948 8.8.01322 8.0888 6.5672 14.64279 14.656 14.656 6.192 0 11.532-3.888 13.66-9.36a50.84 50.84 0 0010.868 1.176c27.96146-.00442 50.62759-22.67055 50.63204-50.632.01807-15.59988-7.17733-30.33175-19.49204-39.908v-.008zm-12.86 1.972a9.08 9.08 0 01-2.272-.288l-6.08 17.64 8.88-1.448-12.508 20.384 10.408-2.528-35.048 41.788c3.33158 3.19445 3.70654 8.3914.86804 12.03103-2.83849 3.63962-7.97022 4.54198-11.88004 2.08897-3.89812-2.48486-5.2798-7.51882-3.19635-11.64546 2.08346-4.12663 6.9544-6.00378 11.26835-4.34254l9.932-21.668-9.692 2.624 15.76-22.56-9.688 2.344 27.468-36.572c-2.89197-2.4321-3.95676-6.4117-2.6657-9.96302 1.29106-3.55131 4.663-5.91797 8.4417-5.92498 4.969 0 8.9978 4.027 9 8.996 0 4.969-4.027 8.9978-8.996 9v.044z"/><path fill="#000" d="M129.44007 24.4h20.576c8 .056 13.932 3.468 17.92 10.24 1.424 2.28 2.32 4.664 2.7 7.2.296 2.5.4 6.816.4 12.948 0 6.52-.228 11.08-.68 13.66a15.68 15.68 0 01-.968 3.5c-.456 1-1.008 2-1.656 3.12-1.72 2.856-4.12 5.22-7.18 7.08-3.04 2-6.8 3-11.176 3h-19.936V24.4zm8.904 52.06h10.656c5.008 0 8.64-1.768 10.904-5.3 1-1.308 1.628-2.96 1.896-4.968.24-1.976.4-5.68.4-11.1l-.4-11.352c-.32-2.28-1.088-4.132-2.3-5.552-2.48-3.532-5.98-5.2-10.5-5.132h-10.664v43.4l.008.004zm71.856 4.148c-2.768 3.232-6.372 4.9-10.8 5.016-2.712-.06-4.968-.656-6.768-1.792-1.88-1.08-3.32-2.252-4.32-3.5-1.1-1.416-1.892-3.152-2.376-5.212-.512-2.028-.8-5.888-.8-11.584 0-5.808.252-9.74.8-11.8.48-2.028 1.28-3.736 2.376-5.12 1-1.352 2.432-2.568 4.32-3.648 1.8-1.02 4.056-1.6 6.768-1.612 4.16 0 7.768 1.708 10.8 5.12v-4.588h8.4v42.184c-.108 6.496-1.92 11.272-5.44 14.328-3.544 3.14-7.784 4.708-12.728 4.708-5.664-.112-10.5-2.52-14.5-7.232l6.532-5.36a16.03999 16.03999 0 003.708 2.64 9.52 9.52 0 004.436 1.296c2.872 0 5.188-.82 6.932-2.468 1.72-1.68 2.608-3.988 2.664-6.948v-4.428h-.004zm-16.624-17.06l.32 6.852c.188 1.308.632 2.4 1.332 3.26.56.78 1.428 1.488 2.584 2.128 1.1.78 2.48 1.172 4.12 1.172 1.64 0 3.012-.392 4.12-1.172 1.104-.64 1.936-1.352 2.504-2.128a7.16 7.16 0 001.412-3.26c.16-1.256.24-3.54.24-6.852l-.24-7.02c-.24-1.308-.712-2.368-1.412-3.176-.56-.78-1.4-1.548-2.504-2.3-1.104-.64-2.472-.988-4.12-1.04-1.6.056-3.012.4-4.12 1.04-1.2.752-2.016 1.52-2.584 2.3-.7.808-1.144 1.868-1.332 3.176-.216 1.312-.32 3.652-.32 7.02zm41.624-21.656h8.4v4.58h.176c2.772-3.416 6.4-5.12 10.896-5.12 3.23813.00705 6.36416 1.18642 8.8 3.32l-6.136 7.512c-1.776-1.448-3.62-2.172-5.532-2.172-2.0586-.03986-4.04864.74004-5.532 2.168-1.72 1.416-2.612 3.712-2.668 6.88v26.064h-8.4l-.004-43.232zm57.904 39.4h-.16a7.08 7.08 0 01-3.628 3.252c-1.612.72-3.84 1.08-6.692 1.08-4.68-.06-8.28-1.332-10.8-3.832-2.66-2.4-3.992-5.6-3.992-9.368 0-3.6 1.2-6.648 3.468-9.04 2.268-2.392 5.696-3.688 10.16-3.748h11.652v-4.56c.052-3.824-2.808-5.68-8.592-5.6-2.1 0-3.752.22-4.96.668a6.08 6.08 0 00-2.98 2.68l-6.58-5.176c3.2-4.308 7.912-6.408 14.148-6.296 5.264-.056 9.472.972 12.616 3.08 3.144 2.16 4.744 5.888 4.8 11.2V85.2h-8.4l-.06-3.908zm0-14.5h-10.1c-4.908.112-7.328 1.848-7.28 5.212 0 1.468.632 2.72 1.9 3.752 1.212 1.14 3.22 1.708 6.02 1.708 3.528.056 6.02-.376 7.48-1.292 1.32-.92 1.98-3 1.98-6.252v-3.128zm24.92-24.9h8.4v4.496c2.8-3.22 6.4-4.9 10.8-5.04 5.132.136 8.88 2.028 11.248 5.664 1.2 1.36 1.944 3.148 2.376 5.372.4 2.2.6 5.92.6 11.2 0 5.108-.2 8.772-.6 11-.428 2.22-1.22 4-2.376 5.46-1.2 1.664-2.68 3-4.56 4-1.852 1.028-4.08 1.6-6.688 1.624a11.4 11.4 0 01-5.764-1.452 18.28 18.28 0 01-5.04-3.648v22.088h-8.4V41.888l.004.004zm16.68 35.068c1.988 0 3.6-.392 4.72-1.172a6.68 6.68 0 002.464-3.092c.56-1.392.92-2.856 1.088-4.348l.08-4.8-.08-5.056a15.51998 15.51998 0 00-1.088-4.344c-.46-1.28-1.32-2.4-2.464-3.092-1.2-.696-2.732-1.04-4.72-1.04-1.88 0-3.38.4-4.48 1.212-1.14.784-2.028 1.892-2.544 3.176a16.28 16.28 0 00-1.008 4.264c-.16 1.624-.24 3.256-.24 4.888 0 1.536.08 3.064.24 4.6.16 1.612.496 3.08 1.008 4.388a7.04 7.04 0 002.544 3.176c1.1.8 2.6 1.252 4.48 1.252v-.012zm31.856-52.56h8.4v22.072h.16c2.60618-3.34233 6.64741-5.24487 10.884-5.124 3.464 0 6.64 1.264 9.508 3.788 2.852 2.56 4.34 6.304 4.48 11.2v28.736h-8.4V59.3c0-3.032-.78-5.336-2.34-6.92-1.532-1.612-3.508-2.42-5.932-2.42-2.424 0-4.408.8-5.968 2.42-1.588 1.584-2.384 3.892-2.384 6.92v25.772h-8.4l-.008-60.672z"/></g></svg>
